X: 2049
T: the LASSES FASHION
C:
Q: "Reel."
R: Reel.
%R: reel
B: James Kerr "Merry Melodies" v.2 p.8 #49
Z: 2016 John Chambers <jc:trillian.mit.edu>
M: C
L: 1/8
K: A
uc !segno!|:\
AF F/F/F (uAE)Ec | AF F/F/F c2Bc |\
AF F/F/F (AE)EA | FGAB c2 [1 (Bc) :|[2 (Bf) ::\
veAfA cBBf |
eAfe c2(ca) |\
[1 eAfA cABc | AFAB c2(Bc) :|\
[2 agfa eacA | FGAB cABc |]
